X:1
T: Elizabeth Adair
C:
R:Jig
Q:180
K:C
M:6/8
L:1/16
|:A2|G4E2 c4B2|A4F2 d4c2|B2c2d2 G2A2B2|c4e2 g6|
G4E2 c4B2|A4F2 d4c2|B2c2d2 G2A2B2|1c6 c4A2:|2c6 c4f2|
|:e4f2 g2f2e2|f2e2f2 d4f2|e2g2e2 c2d2e2|d2B2G2 G4f2|
|1e4f2 g2f2e2|f2a2f2 d4c2|B2c2d2 G2A2B2|c6 c4f2:|
|2e2f2g2 f2g2a2|g2f2e2 d4c2|B2c2d2 G2A2B2|c6 c4||
